lib/radiotmp/nrk-media-speed-1.25x.svg

<svg width="40" height="24" viewBox="0 0 40 24" fill="none" xmlns="http://www.w3.org/2000/svg">
<path d="M7.46478 17.3024H5.28978V9.05244C4.96978 9.24244 4.63978 9.40244 4.29978 9.53244C3.95978 9.66244 3.55978 9.77744 3.09978 9.87744L2.76978 8.13744C3.45978 7.96744 4.09978 7.75244 4.68978 7.49244C5.27978 7.23244 5.89478 6.95244 6.53478 6.65244H7.46478V17.3024Z" fill="black"/>
<path d="M10.607 17.4974C10.217 17.4974 9.88704 17.3724 9.61704 17.1224C9.35704 16.8624 9.22704 16.5424 9.22704 16.1624C9.22704 15.8024 9.35704 15.4924 9.61704 15.2324C9.88704 14.9724 10.217 14.8424 10.607 14.8424C10.987 14.8424 11.307 14.9724 11.567 15.2324C11.837 15.4924 11.972 15.8024 11.972 16.1624C11.972 16.5424 11.837 16.8624 11.567 17.1224C11.307 17.3724 10.987 17.4974 10.607 17.4974Z" fill="black"/>
<path d="M13.3318 17.3024L13.0318 16.0874C14.0718 15.2374 14.9618 14.4574 15.7018 13.7474C16.4418 13.0374 17.0068 12.3724 17.3968 11.7524C17.7868 11.1224 17.9818 10.5174 17.9818 9.93744C17.9818 9.39744 17.8068 8.97244 17.4568 8.66244C17.1168 8.34244 16.6018 8.18244 15.9118 8.18244C15.4418 8.18244 14.9868 8.25244 14.5468 8.39244C14.1068 8.52244 13.7118 8.69744 13.3618 8.91744L13.1368 7.25244C13.5768 7.02244 14.0518 6.84244 14.5618 6.71244C15.0718 6.57244 15.6268 6.50244 16.2268 6.50244C17.1168 6.50244 17.8518 6.63244 18.4318 6.89244C19.0218 7.15244 19.4568 7.50744 19.7368 7.95744C20.0268 8.39744 20.1718 8.89744 20.1718 9.45744C20.1718 9.99744 20.0418 10.5474 19.7818 11.1074C19.5318 11.6574 19.1918 12.2024 18.7618 12.7424C18.3418 13.2724 17.8668 13.7824 17.3368 14.2724C16.8168 14.7624 16.2868 15.2074 15.7468 15.6074H20.4418L20.1868 17.3024H13.3318Z" fill="black"/>
<path d="M24.1103 15.7724C24.8803 15.7724 25.4703 15.6424 25.8803 15.3824C26.2903 15.1224 26.4953 14.6624 26.4953 14.0024C26.4953 13.5924 26.3653 13.2624 26.1053 13.0124C25.8453 12.7624 25.3753 12.5774 24.6953 12.4574C24.0253 12.3274 23.0653 12.2524 21.8153 12.2324L22.3403 6.65244H28.5203L28.2053 8.39244H23.9603L23.7503 10.7024C24.9803 10.7724 25.9553 10.9324 26.6753 11.1824C27.4053 11.4224 27.9253 11.7674 28.2353 12.2174C28.5553 12.6674 28.7153 13.2324 28.7153 13.9124C28.7153 15.0124 28.3353 15.8774 27.5753 16.5074C26.8153 17.1374 25.6753 17.4524 24.1553 17.4524C23.7253 17.4524 23.3303 17.4274 22.9703 17.3774C22.6203 17.3274 22.2253 17.2524 21.7853 17.1524L21.5903 15.4124C22.0403 15.5224 22.4703 15.6124 22.8803 15.6824C23.2903 15.7424 23.7003 15.7724 24.1103 15.7724Z" fill="black"/>
<path d="M29.3703 17.3024L32.0553 13.4324L29.5803 9.81744L31.6653 9.29244L33.3153 12.2174L34.8453 9.54744H37.2153L34.5603 13.3424L37.2303 17.3024H34.8753L33.2553 14.5874L31.6653 17.3024H29.3703Z" fill="black"/>
</svg>

<svg xmlns="http://www.w3.org/2000/svg" viewBox="0 0 40 24"><path fill="#000" d="M7.465 17.302H5.29v-8.25c-.32.19-.65.35-.99.48-.34.13-.74.245-1.2.345l-.33-1.74c.69-.17 1.33-.385 1.92-.645.59-.26 1.205-.54 1.845-.84h.93v10.65ZM10.607 17.497c-.39 0-.72-.125-.99-.375-.26-.26-.39-.58-.39-.96 0-.36.13-.67.39-.93.27-.26.6-.39.99-.39.38 0 .7.13.96.39.27.26.405.57.405.93 0 .38-.135.7-.405.96-.26.25-.58.375-.96.375ZM13.332 17.302l-.3-1.215c1.04-.85 1.93-1.63 2.67-2.34s1.305-1.375 1.695-1.995c.39-.63.585-1.235.585-1.815 0-.54-.175-.965-.525-1.275-.34-.32-.855-.48-1.545-.48-.47 0-.925.07-1.365.21-.44.13-.835.305-1.185.525l-.225-1.665c.44-.23.915-.41 1.425-.54.51-.14 1.065-.21 1.665-.21.89 0 1.625.13 2.205.39.59.26 1.025.615 1.305 1.065.29.44.435.94.435 1.5 0 .54-.13 1.09-.39 1.65-.25.55-.59 1.095-1.02 1.635-.42.53-.895 1.04-1.425 1.53-.52.49-1.05.935-1.59 1.335h4.695l-.255 1.695h-6.855ZM24.11 15.772c.77 0 1.36-.13 1.77-.39.41-.26.615-.72.615-1.38 0-.41-.13-.74-.39-.99s-.73-.435-1.41-.555c-.67-.13-1.63-.205-2.88-.225l.525-5.58h6.18l-.315 1.74H23.96l-.21 2.31c1.23.07 2.205.23 2.925.48.73.24 1.25.585 1.56 1.035.32.45.48 1.015.48 1.695 0 1.1-.38 1.965-1.14 2.595-.76.63-1.9.945-3.42.945-.43 0-.825-.025-1.185-.075-.35-.05-.745-.125-1.185-.225l-.195-1.74c.45.11.88.2 1.29.27.41.06.82.09 1.23.09ZM29.37 17.302l2.685-3.87-2.475-3.615 2.085-.525 1.65 2.925 1.53-2.67h2.37l-2.655 3.795 2.67 3.96h-2.355l-1.62-2.715-1.59 2.715H29.37Z"/></svg>
